dist/img/svg/icon-title-gallery.svg

<svg width="16" height="16" viewBox="0 0 16 16" fill="none" xmlns="http://www.w3.org/2000/svg">
<path d="M12.8178 4.20792L8.62222 0.249149C8.45624 0.0905717 8.23058 0.000955314 7.99488 7.59346e-06C7.75918 -0.000940127 7.53273 0.0868585 7.36533 0.244095L7.36 0.249149L3.18222 4.20792H0.888889C0.653141 4.20792 0.427048 4.29666 0.260349 4.45462C0.0936505 4.61258 0 4.82682 0 5.05021V15.1577C0 15.3811 0.0936505 15.5953 0.260349 15.7533C0.427048 15.9113 0.653141 16 0.888889 16H15.1111C15.3469 16 15.573 15.9113 15.7397 15.7533C15.9064 15.5953 16 15.3811 16 15.1577V5.05021C16 4.82682 15.9064 4.61258 15.7397 4.45462C15.573 4.29666 15.3469 4.20792 15.1111 4.20792H12.8178ZM8 2.03481L10.2933 4.20792H5.70667L8 2.03481ZM14.2222 14.3154H1.77778V5.8925H14.2222V14.3154ZM6.22222 8.41938C6.22222 8.64277 6.12857 8.85701 5.96187 9.01497C5.79517 9.17293 5.56908 9.26167 5.33333 9.26167C5.09759 9.26167 4.87149 9.17293 4.70479 9.01497C4.53809 8.85701 4.44444 8.64277 4.44444 8.41938C4.44444 8.19599 4.53809 7.98175 4.70479 7.82379C4.87149 7.66583 5.09759 7.57709 5.33333 7.57709C5.56908 7.57709 5.79517 7.66583 5.96187 7.82379C6.12857 7.98175 6.22222 8.19599 6.22222 8.41938ZM12.4444 12.6308H5.33333L6.66667 10.104L7.55556 11.7885L9.77778 7.57709L12.4444 12.6308Z" fill="black"/>
</svg>

<svg width="16" height="16" viewBox="0 0 16 16" fill="none" xmlns="http://www.w3.org/2000/svg"><path d="M12.818 4.208L8.622.249A.914.914 0 007.995 0a.915.915 0 00-.63.244L7.36.25 3.182 4.208H.89a.914.914 0 00-.629.247.82.82 0 00-.26.595v10.108a.82.82 0 00.26.595A.914.914 0 00.89 16h14.22a.914.914 0 00.629-.247.82.82 0 00.26-.595V5.05a.82.82 0 00-.26-.595.915.915 0 00-.629-.247h-2.293zM8 2.035l2.293 2.173H5.707L8 2.035zm6.222 12.28H1.778V5.893h12.444v8.422zm-8-5.896a.82.82 0 01-.26.596.914.914 0 01-.629.247.914.914 0 01-.628-.247.82.82 0 01-.26-.596.82.82 0 01.26-.595.914.914 0 01.628-.247c.236 0 .462.089.629.247a.82.82 0 01.26.595zm6.222 4.212h-7.11l1.333-2.527.889 1.685 2.222-4.212 2.666 5.054z" fill="#000"/></svg>
